dist/img/education/cs50.svg

<svg width="400" height="227" fill="none" xmlns="http://www.w3.org/2000/svg"><g clip-path="url(#clip0)"><path fill="#7B0505" d="M0 0h400v227H0z"/><path d="M145 227H0V0h110l35 227zm110 0h145V0H290l-35 227zm9.5-227H135l65 105.5L264.5 0z" fill="#440404"/><path d="M258 0H141l58.726 86L258 0z" fill="#7B0505"/><path d="M154.003 226.917l-.089 1.083h92.676l-.094-1.086-14.942-173.825c.156-.088.334-.196.53-.326.695-.46 1.611-1.193 2.554-2.303 1.893-2.232 3.842-5.931 4.358-11.873.261-3-.099-6.942-.758-11.11-.662-4.186-1.638-8.668-2.642-12.777A271.23 271.23 0 00231.82.893c-.115-.383-.207-.68-.269-.882a26.693 26.693 0 01-.072-.231l-.019-.06-.004-.015-.002-.004h0L230.5 0l.954-.3-.22-.7h-62.512l-.191.754.969.246-.969-.246-.001.001-.001.004-.004.017-.016.064-.063.25-.237.956a396.458 396.458 0 00-3.313 14.627c-.878 4.26-1.726 8.815-2.293 12.876-.562 4.031-.862 7.674-.597 10.061.521 4.687 2.215 8.212 3.787 10.57a20.2 20.2 0 002.105 2.663c.22.233.411.422.565.568l-14.46 174.506z" fill="#220404" stroke="#440404" stroke-width="2"/><path d="M112.35 132.59c3.06 0 5.88-.66 8.46-1.98 2.64-1.32 5.01-3.27 7.11-5.85l10.17 9.99c-2.94 3.66-6.81 6.6-11.61 8.82-4.74 2.22-9.63 3.33-14.67 3.33-4.74 0-9.21-.84-13.41-2.52-4.14-1.68-7.71-3.96-10.71-6.84-3-2.88-5.37-6.3-7.11-10.26-1.74-3.96-2.61-8.22-2.61-12.78 0-4.56.87-8.82 2.61-12.78 1.74-4.02 4.11-7.47 7.11-10.35 3.06-2.88 6.66-5.16 10.8-6.84 4.14-1.68 8.58-2.52 13.32-2.52 2.58 0 5.16.3 7.74.9 2.58.6 5.04 1.44 7.38 2.52 2.34 1.02 4.5 2.31 6.48 3.87 1.98 1.5 3.69 3.18 5.13 5.04L128.1 104.6c-2.22-2.76-4.71-4.83-7.47-6.21-2.7-1.44-5.64-2.16-8.82-2.16-2.52 0-4.89.48-7.11 1.44-2.16.9-4.05 2.16-5.67 3.78-1.56 1.62-2.82 3.57-3.78 5.85-.9 2.22-1.35 4.62-1.35 7.2s.45 4.98 1.35 7.2c.96 2.16 2.25 4.05 3.87 5.67 1.68 1.62 3.63 2.91 5.85 3.87 2.28.9 4.74 1.35 7.38 1.35zm30.203 3.78l8.64-11.25c3.78 3.06 7.32 5.28 10.62 6.66 3.3 1.38 6.75 2.07 10.35 2.07 3.54 0 6.3-.54 8.28-1.62 2.04-1.08 3.06-2.58 3.06-4.5 0-1.74-.69-3.09-2.07-4.05-1.32-.96-3.54-1.71-6.66-2.25l-13.86-2.43c-5.1-.9-9.03-2.85-11.79-5.85-2.76-3-4.14-6.81-4.14-11.43 0-6.06 2.28-10.83 6.84-14.31 4.62-3.54 10.95-5.31 18.99-5.31 4.68 0 9.39.81 14.13 2.43 4.8 1.62 8.91 3.81 12.33 6.57l-8.19 11.43c-3.3-2.58-6.54-4.47-9.72-5.67a26.61 26.61 0 00-9.63-1.8c-3.12 0-5.61.51-7.47 1.53-1.8.96-2.7 2.28-2.7 3.96 0 1.56.57 2.79 1.71 3.69 1.2.84 3.12 1.47 5.76 1.89l13.05 2.16c6.06.96 10.65 2.97 13.77 6.03 3.18 3.06 4.77 7.02 4.77 11.88 0 6.36-2.49 11.4-7.47 15.12-4.92 3.72-11.64 5.58-20.16 5.58-5.04 0-10.08-.93-15.12-2.79-4.98-1.86-9.42-4.44-13.32-7.74zm65.75-19.53l1.53-33.84h42.12v12.15h-30.33l-.54 12.33c1.8-.6 3.6-1.02 5.4-1.26 1.86-.3 3.81-.45 5.85-.45 6.96 0 12.57 1.8 16.83 5.4 4.26 3.54 6.39 8.22 6.39 14.04 0 3.24-.66 6.21-1.98 8.91-1.26 2.64-3.06 4.92-5.4 6.84-2.34 1.92-5.16 3.42-8.46 4.5-3.24 1.02-6.84 1.53-10.8 1.53-4.56 0-8.91-.72-13.05-2.16-4.08-1.44-7.71-3.54-10.89-6.3l8.73-9.9c2.7 2.22 5.25 3.81 7.65 4.77 2.4.9 5.07 1.35 8.01 1.35 3.42 0 6.15-.81 8.19-2.43 2.04-1.62 3.06-3.75 3.06-6.39 0-2.58-1.14-4.65-3.42-6.21-2.22-1.62-5.07-2.43-8.55-2.43-1.74 0-3.54.21-5.4.63-1.86.42-3.6 1.02-5.22 1.8l-9.72-2.88zm83.447 30.06c-4.26 0-8.16-.78-11.7-2.34-3.54-1.56-6.54-3.75-9-6.57-2.46-2.82-4.38-6.24-5.76-10.26s-2.07-8.46-2.07-13.32c0-4.86.69-9.27 2.07-13.23 1.38-4.02 3.3-7.44 5.76-10.26a26.43 26.43 0 019-6.57c3.54-1.56 7.44-2.34 11.7-2.34 4.26 0 8.13.78 11.61 2.34 3.54 1.56 6.54 3.75 9 6.57 2.52 2.82 4.47 6.24 5.85 10.26 1.38 3.96 2.07 8.37 2.07 13.23 0 4.86-.69 9.3-2.07 13.32s-3.3 7.44-5.76 10.26c-2.46 2.82-5.46 5.01-9 6.57-3.54 1.56-7.44 2.34-11.7 2.34zm0-12.6c4.44 0 7.92-1.77 10.44-5.31 2.58-3.54 3.87-8.4 3.87-14.58 0-6.06-1.29-10.86-3.87-14.4-2.58-3.6-6.06-5.4-10.44-5.4s-7.86 1.8-10.44 5.4c-2.58 3.54-3.87 8.34-3.87 14.4 0 6.18 1.26 11.04 3.78 14.58 2.58 3.54 6.09 5.31 10.53 5.31z" fill="#F7F6F6"/></g><defs><clipPath id="clip0"><path fill="#fff" d="M0 0h400v227H0z"/></clipPath></defs></svg>

<svg width="400" height="227" viewBox="0 0 400 227" fill="none" xmlns="http://www.w3.org/2000/svg">
<g clip-path="url(#clip0)">
<rect width="400" height="227" fill="#7B0505"/>
<path d="M145 227H0V0H110L145 227Z" fill="#440404"/>
<path d="M255 227H400V0H290L255 227Z" fill="#440404"/>
<path d="M264.5 0H135L200 105.5L264.5 0Z" fill="#440404"/>
<path d="M258 0H141L199.726 86L258 0Z" fill="#7B0505"/>
<path d="M154.003 226.917L153.914 228H155H245.5H246.59L246.496 226.914L231.554 53.0894C231.71 53.0007 231.888 52.8928 232.084 52.7633C232.779 52.3028 233.695 51.5699 234.638 50.4595C236.531 48.2281 238.48 44.5285 238.996 38.5866C239.257 35.5866 238.897 31.6451 238.238 27.4766C237.576 23.291 236.6 18.8088 235.596 14.7002C234.592 10.5896 233.557 6.84151 232.773 4.12152C232.381 2.7612 232.052 1.65722 231.82 0.892678C231.705 0.510389 231.613 0.212914 231.551 0.0106372C231.519 -0.0905029 231.495 -0.167848 231.479 -0.2201L231.46 -0.279497L231.456 -0.294778L231.454 -0.298761L231.454 -0.299832C231.454 -0.30011 231.454 -0.300286 230.5 0L231.454 -0.300286L231.234 -1H230.5H169.5H168.722L168.531 -0.246399L169.5 0C168.531 -0.246399 168.531 -0.246237 168.531 -0.245962L168.53 -0.244852L168.529 -0.240622L168.525 -0.224179L168.509 -0.159869L168.446 0.0904499C168.391 0.30989 168.311 0.632435 168.209 1.04587C168.005 1.87271 167.715 3.06326 167.371 4.51979C166.682 7.43229 165.773 11.411 164.896 15.6733C164.018 19.9336 163.17 24.4881 162.603 28.5493C162.041 32.5804 161.741 36.2231 162.006 38.6104C162.527 43.2974 164.221 46.8224 165.793 49.1797C166.578 50.3577 167.333 51.2452 167.898 51.8429C168.118 52.0758 168.309 52.2651 168.463 52.4106L154.003 226.917Z" fill="#220404" stroke="#440404" stroke-width="2"/>
<path d="M112.35 132.59C115.41 132.59 118.23 131.93 120.81 130.61C123.45 129.29 125.82 127.34 127.92 124.76L138.09 134.75C135.15 138.41 131.28 141.35 126.48 143.57C121.74 145.79 116.85 146.9 111.81 146.9C107.07 146.9 102.6 146.06 98.4 144.38C94.26 142.7 90.69 140.42 87.69 137.54C84.69 134.66 82.32 131.24 80.58 127.28C78.84 123.32 77.97 119.06 77.97 114.5C77.97 109.94 78.84 105.68 80.58 101.72C82.32 97.7 84.69 94.25 87.69 91.37C90.75 88.49 94.35 86.21 98.49 84.53C102.63 82.85 107.07 82.01 111.81 82.01C114.39 82.01 116.97 82.31 119.55 82.91C122.13 83.51 124.59 84.35 126.93 85.43C129.27 86.45 131.43 87.74 133.41 89.3C135.39 90.8 137.1 92.48 138.54 94.34L128.1 104.6C125.88 101.84 123.39 99.77 120.63 98.39C117.93 96.95 114.99 96.23 111.81 96.23C109.29 96.23 106.92 96.71 104.7 97.67C102.54 98.57 100.65 99.83 99.03 101.45C97.47 103.07 96.21 105.02 95.25 107.3C94.35 109.52 93.9 111.92 93.9 114.5C93.9 117.08 94.35 119.48 95.25 121.7C96.21 123.86 97.5 125.75 99.12 127.37C100.8 128.99 102.75 130.28 104.97 131.24C107.25 132.14 109.71 132.59 112.35 132.59ZM142.553 136.37L151.193 125.12C154.973 128.18 158.513 130.4 161.813 131.78C165.113 133.16 168.563 133.85 172.163 133.85C175.703 133.85 178.463 133.31 180.443 132.23C182.483 131.15 183.503 129.65 183.503 127.73C183.503 125.99 182.813 124.64 181.433 123.68C180.113 122.72 177.893 121.97 174.773 121.43L160.913 119C155.813 118.1 151.883 116.15 149.123 113.15C146.363 110.15 144.983 106.34 144.983 101.72C144.983 95.66 147.263 90.89 151.823 87.41C156.443 83.87 162.773 82.1 170.813 82.1C175.493 82.1 180.203 82.91 184.943 84.53C189.743 86.15 193.853 88.34 197.273 91.1L189.083 102.53C185.783 99.95 182.543 98.06 179.363 96.86C176.243 95.66 173.033 95.06 169.733 95.06C166.613 95.06 164.123 95.57 162.263 96.59C160.463 97.55 159.563 98.87 159.563 100.55C159.563 102.11 160.133 103.34 161.273 104.24C162.473 105.08 164.393 105.71 167.033 106.13L180.083 108.29C186.143 109.25 190.733 111.26 193.853 114.32C197.033 117.38 198.623 121.34 198.623 126.2C198.623 132.56 196.133 137.6 191.153 141.32C186.233 145.04 179.513 146.9 170.993 146.9C165.953 146.9 160.913 145.97 155.873 144.11C150.893 142.25 146.453 139.67 142.553 136.37ZM208.303 116.84L209.833 83H251.953V95.15H221.623L221.083 107.48C222.883 106.88 224.683 106.46 226.483 106.22C228.343 105.92 230.293 105.77 232.333 105.77C239.293 105.77 244.903 107.57 249.163 111.17C253.423 114.71 255.553 119.39 255.553 125.21C255.553 128.45 254.893 131.42 253.573 134.12C252.313 136.76 250.513 139.04 248.173 140.96C245.833 142.88 243.013 144.38 239.713 145.46C236.473 146.48 232.873 146.99 228.913 146.99C224.353 146.99 220.003 146.27 215.863 144.83C211.783 143.39 208.153 141.29 204.973 138.53L213.703 128.63C216.403 130.85 218.953 132.44 221.353 133.4C223.753 134.3 226.423 134.75 229.363 134.75C232.783 134.75 235.513 133.94 237.553 132.32C239.593 130.7 240.613 128.57 240.613 125.93C240.613 123.35 239.473 121.28 237.193 119.72C234.973 118.1 232.123 117.29 228.643 117.29C226.903 117.29 225.103 117.5 223.243 117.92C221.383 118.34 219.643 118.94 218.023 119.72L208.303 116.84ZM291.75 146.9C287.49 146.9 283.59 146.12 280.05 144.56C276.51 143 273.51 140.81 271.05 137.99C268.59 135.17 266.67 131.75 265.29 127.73C263.91 123.71 263.22 119.27 263.22 114.41C263.22 109.55 263.91 105.14 265.29 101.18C266.67 97.16 268.59 93.74 271.05 90.92C273.57 88.1 276.57 85.91 280.05 84.35C283.59 82.79 287.49 82.01 291.75 82.01C296.01 82.01 299.88 82.79 303.36 84.35C306.9 85.91 309.9 88.1 312.36 90.92C314.88 93.74 316.83 97.16 318.21 101.18C319.59 105.14 320.28 109.55 320.28 114.41C320.28 119.27 319.59 123.71 318.21 127.73C316.83 131.75 314.91 135.17 312.45 137.99C309.99 140.81 306.99 143 303.45 144.56C299.91 146.12 296.01 146.9 291.75 146.9ZM291.75 134.3C296.19 134.3 299.67 132.53 302.19 128.99C304.77 125.45 306.06 120.59 306.06 114.41C306.06 108.35 304.77 103.55 302.19 100.01C299.61 96.41 296.13 94.61 291.75 94.61C287.37 94.61 283.89 96.41 281.31 100.01C278.73 103.55 277.44 108.35 277.44 114.41C277.44 120.59 278.7 125.45 281.22 128.99C283.8 132.53 287.31 134.3 291.75 134.3Z" fill="#F7F6F6"/>
</g>
<defs>
<clipPath id="clip0">
<rect width="400" height="227" fill="white"/>
</clipPath>
</defs>
</svg>
